X: 5
T: The Burning Of The Piper's Hut
R: reel
M: 4/4
L: 1/8
K: Emin
M:6/8
|: B |E>EE E>FA | B>AB E>FG | F>ED A>FD | F>EF D>EF |
G>FG A>GA | B>cB B>AG | F<DF A>BF | E3 E2 :|
|: B |E>FG G>AB | dBG G>FG | A>FD D>EF | FAF D>EF |
G>FG ABc | dBG G>FG | A>FD D<dF | E3 E2 :|
M: 4/4
|: B |E2 EE E2 FA | B2 AB E2 FG | F2 ED A2 FD | F2 EF D2 EF |
G2 FG A2 GA | B2 cB B2 AG | FD- DF A2 BF | E4 E3 :|
|: B |E2 FG G2 AB | dB G2 G2 FG | A2 FD D2 EF | FA F2 D2 EF |
G2 FG ABc | dB G2 G2 FG | A2 FD Dd- dF | E4 E3 :|
M: 6/8
|: B |E>FE E>FA | B>AF E>FE | F>ED A<FE | F>EF D2 F |
G>FG A>^GA | B<dF B2 A | F<DF A>BF | E3 E2 :|
|: B |E>FG G>AB | dBG G>AG | A>FD D>FG | FAF D2 F |
G>FG A>^GA | B<dF B>AG | F<dF A>BF | E3 E2 :|


Tune 660	Setting 24462

